X:46
T:Polska ur Petter Dufvas notbok (Ma6-46)
R:Polska
O:Verkelbäck, Småland
B:Petter Dufvas notbok
S:Petter Dufva
N:Smus Ma6 bild 48
M:3/4
L:1/8
K:D
de/f/ g2 f2|ed cB cA|aa bb aa|gg f4:|
|:aa gg f2|gg ff e2|dc de fd|ed/c/ d2D2:|

